X: 29734
T: Nyström's Polska
R: waltz
M: 3/4
K: Amajor
a/g/f/g/ aa f>a|a/g/b/g/ e2 B2|cc/d/ ee/f/ ge|g/f/e/^d/ eB =d/c/B/c/|
Aa ga f>a|a/g/b/g/ e2 B2|cc/d/ ee/f/ ge|g/f/e/^d/ e4:|
|:e/c/e/c/ B/d/B/G/ AA/B/|c/A/c/e/ d/c/d/f/ e>(e|e)/c/e/c/ B/d/B/G/ AA/B/|
c/A/c/e/ d/c/d/f/ e>g|a/g/f/g/ a/f/d/f/ f/e/c/e/|e/d/B/G/ A4:|

